X:1
T:Fantasia in C minor, K.475
T:Fantasia in C minor, KV. 475
T:Wolfgang Amadeus Mozart
T:Public Domain
T:Public Domain
C:Wolfgang Amadeus Mozart
Z:Public Domain
%%score { ( 1 3 ) | ( 2 4 ) }
L:1/8
Q:1/4=40
M:4/4
K:C
V:1 treble nm="Piano" snm="Pno."
V:3 treble 
V:2 bass 
V:4 bass 
V:1
"^Adagio"!f! (C3!p! _E ^FG_AC) | B, z ([c_e][Bd]/) z/!pp! ([c^f][Bg]/) z/ z2 | %2
!f! (!1!_B,3!p! _D !1!=E>!4!F GB,) | =A, z ([_B_d][Ac]/) z/!pp! ([_d=e][cf]/) z/ z2 | %4
!f! (!1!_A,3!p! C !1!_DF_A!2!D) | (!1!!2!C3 !1!=D _E_G_BC) | (_D3 !1!=E F_A_dD) | %7
!f! C3!p! (!4!_e c=A!3!_G_E) |!f! _B,3!p! (!4!_g _e_B!3!_G_E) | %9
 =B,/[^D^F]/[DF]/[DF]/ [DF]/[DF]/[DF]/[DF]/ [DF]/[DF]/[DF]/[DF]/ [DF]/[DF]/[DF]/[DF]/ | %10
!f! [E^F]/[EF]/[EF]/[EF]/!p! [EF]/[EF]/[EF]/[EF]/ [EF]/[EF]/[EF]/[EF]/ [EF]/[EF]/[EF]/[EF]/ | %11
!f! [^CEG]/[CEG]/[CEG]/[CEG]/!p! [CEG]/[CEG]/[CEG]/[CEG]/ [CEG]/[CEG]/[CEG]/[CEG]/ [CEG]/[CEG]/[CEG]/[CEG]/ | %12
!f! [=C=F]/[CF]/[CF]/[CF]/!p! [CF]/[CF]/[CF]/[CF]/ [CF]/[CF]/[CF]/[CF]/ [CF]/[CF]/[CF]/[CF]/ | %13
!f! [B,DF]/[B,DF]/[B,DF]/[B,DF]/!p! [B,DF]/[B,DF]/[B,DF]/[B,DF]/ [B,DF]/[B,DF]/[B,DF]/[B,DF]/ [B,DF]/[B,DF]/[B,DF]/[B,DF]/ | %14
!f! [_B,_E]/[B,E]/[B,E]/[B,E]/!p! [B,E]/[B,E]/[B,E]/[B,E]/ [B,E]/[B,E]/[B,E]/[B,E]/ [B,E]/[B,E]/[B,E]/[B,E]/ | %15
 (!1!!4![^A,^D]/^C/)C/C/ (!2!C/=B,/)!2!B,/!2!B,/ (!5![A,^F]/E/)E/E/ ([B,E]/^D/)D/D/ | z8 | z8 | %18
 z8 | z8 | z z z z z z z z |] %21
V:2
 ([C,,C,]3 [_E,,_E,] [^F,,^F,][G,,G,][_A,,_A,][C,,C,]) | %1
 [B,,,B,,] z[K:treble] (^FG/) z/ (_AG/) z/ z2 | %2
[K:bass] ([_B,,,_B,,]3 [_D,,_D,] [=E,,=E,]>[F,,F,] [G,,G,][B,,,B,,]) | %3
 [=A,,,=A,,] z[K:treble] (=EF/) z/ (_BA/) z/ z2 | %4
[K:bass] ([_A,,,_A,,]3 [C,,C,] [_D,,_D,][F,,F,][_A,,_A,]) z | %5
"_(legato)" _A,,/_G,/_E,/G,/ A,,/G,/E,/G,/ A,,/G,/E,/G,/ A,,/G,/E,/G,/ | %6
 _A,,/F,/!3!_D,/F,/ A,,/F,/D,/F,/ A,,/F,/D,/F,/ A,,/F,/D,/F,/ | %7
 =A,,/_G,/_E,/G,/!p! A,,/G,/E,/G,/ A,,/G,/E,/G,/ A,,/G,/E,/G,/ | %8
 _B,,/_G,/_E,/G,/!p! B,,/G,/E,/G,/ B,,/G,/E,/G,/ B,,/G,/E,/G,/ | =B,,3 (^D, ^F,^A,B,B,,) | %10
!f! [^A,,,^A,,]3!p! (^C, ^F,^A,^CA,,) |!f! [=A,,,=A,,]3!p! (^C, E,^G,A,A,,) | %12
 [_A,,,_A,,]3!p! (!5!=C, !3!=F,G,_A,A,,) | [G,,,G,,]3!p! (B,, D,^F,G,G,,) | %14
 [_G,,,_G,,]3!p! (_B,, _E,F,_G,G,,) | [^F,,^F,]4 [F,,F,]4 | z8 | z8 | z8 | z8 | z z z z z z z z |] %21
V:3
 x8 | x8 | x37/8 !4!F/8E/8=D/8!1!E/ x5/2 | x8 | x8 | x8 | x8 | x8 | x8 | x8 | x8 | x8 | x8 | x8 | %14
 x8 | x8 | x8 | x8 | x8 | x8 | x8 |] %21
V:4
 x8 | x2[K:treble] x6 |[K:bass] x8 | x2[K:treble] x6 |[K:bass] x8 | x8 | x8 | x8 | x8 | x8 | x8 | %11
 x8 | x8 | x8 | x8 | (=E,2 ^D,2) (^C,2 B,,2) | x8 | x8 | x8 | x8 | x8 |] %21

